X:87
T: WO FEHLT ES DIR MEIN HERZ
N: E0694
O: Europa, Mitteleuropa, Deutschland; Frankreich, Elsass, Willer
R: Liebes - Lied, Leid, Klage
M: 4/4
L: 1/8
K: G
D2 | G3ABAGF | G4z2
d2 | A3GFEDC | C2B,2z2
D2 | G3ABAGF | G4z2
d2 | A3GFEDC | C2B,2z2
D2 | G3DGBAG | F4z2
D2 | G3DGBAG | F4z2
D2 | G2G2A2d2 | c6
e2 | dcBAB2A2 | G4z2

